icons/building-3-line.svg

<svg width="24" height="24" fill="none" xmlns="http://www.w3.org/2000/svg"><g clip-path="url(#a)"><path d="M10 10.111V1l11 6v14H3V7l7 3.111Zm2-5.742v8.82l-7-3.111V19h14V8.187L12 4.37v-.001Z" /></g><defs><clipPath id="a"><path fill="#fff" d="M0 0h24v24H0z"/></clipPath></defs></svg>

<svg xmlns="http://www.w3.org/2000/svg" width="24" height="24" fill="none"><g clip-path="url(#a)"><g><path fill="#121212" d="M10 10.111V1L21 7V21H3V7L10 10.111ZM12 4.369V13.189L5 10.078V19H19V8.187L12 4.37V4.369Z"/></g></g><defs><clipPath id="a"><rect width="24" height="24" fill="white"/></clipPath></defs></svg>
